; generated by PrusaSlicer 2.0.0+linux64 on 2019-08-11 at 18:29:41

; 

; external perimeters extrusion width = 0.45mm
; perimeters extrusion width = 0.45mm
; infill extrusion width = 0.45mm
; solid infill extrusion width = 0.45mm
; top infill extrusion width = 0.40mm
; first layer extrusion width = 0.42mm

M73 P0 R33
M201 X9000 Y9000 Z500 E10000 ; sets maximum accelerations, mm/sec^2
M203 X500 Y500 Z12 E120 ; sets maximum feedrates, mm/sec
M204 P2000 R1500 T2000 ; sets acceleration (P, T) and retract acceleration (R), mm/sec^2
M205 X10.00 Y10.00 Z0.20 E2.50 ; sets the jerk limits, mm/sec
M205 S0 T0 ; sets the minimum extruding and travel feed rate, mm/sec
M107
M115 U3.7.2 ; tell printer latest fw version
G90 ; use absolute coordinates
M83 ; extruder relative mode
M104 S215 ; set extruder temp
M140 S60 ; set bed temp
M190 S60 ; wait for bed temp
M109 S215 ; wait for extruder temp
G28 W ; home all without mesh bed level
G80 ; mesh bed leveling
G1 Y-3.0 F1000.0 ; go outside print area
G92 E0.0
G1 X60.0 E9.0 F1000.0 ; intro line
M73 P0 R33
G1 X100.0 E12.5 F1000.0 ; intro line
G92 E0.0
M900 K30 ; Filament gcode
G21 ; set units to millimeters
G90 ; use absolute coordinates
M83 ; use relative distances for extrusion
;BEFORE_LAYER_CHANGE
G92 E0.0
;0.2


G1 E-0.80000 F2100.00000
G1 Z0.600 F10800.000
;AFTER_LAYER_CHANGE
;0.2
G1 X0.675 Y61.142
G1 Z0.200
G1 E0.80000 F2100.00000
M204 S1000
G1 F1200
G1 X10.664 Y61.142 E0.31318
G1 X10.664 Y148.018 E2.72394
G1 X0.675 Y148.018 E0.31318
G1 X0.675 Y61.202 E2.72206
G1 X0.298 Y60.765 F10800.000
G1 F1200
G1 X11.041 Y60.765 E0.33683
G1 X11.041 Y148.395 E2.74758
G1 X0.298 Y148.395 E0.33683
G1 X0.298 Y60.825 E2.74570
G1 X0.652 Y60.951 F10800.000
G1 F8640
G1 X3.589 Y60.806 E-0.76000
G1 E-0.04000 F2100.00000
G1 Z0.800 F10800.000
G1 X10.550 Y62.021
G1 Z0.200
G1 E0.80000 F2100.00000
G1 F1200
G1 X9.954 Y61.425 E0.02660
G1 X9.418 Y61.425 E0.01689
G1 X10.381 Y62.388 E0.04293
G1 X10.381 Y62.924 E0.01689
G1 X8.882 Y61.425 E0.06682
G1 X8.346 Y61.425 E0.01689
G1 X10.381 Y63.460 E0.09071
G1 X10.381 Y63.996 E0.01689
G1 X7.810 Y61.425 E0.11460
G1 X7.273 Y61.425 E0.01689
G1 X10.381 Y64.532 E0.13850
G1 X10.381 Y65.068 E0.01689
G1 X6.737 Y61.425 E0.16239
G1 X6.201 Y61.425 E0.01689
G1 X10.381 Y65.604 E0.18628
G1 X10.381 Y66.140 E0.01689
G1 X5.665 Y61.425 E0.21017
G1 X5.129 Y61.425 E0.01689
G1 X10.381 Y66.676 E0.23407
G1 X10.381 Y67.212 E0.01689
G1 X4.593 Y61.425 E0.25796
G1 X4.057 Y61.425 E0.01689
G1 X10.381 Y67.748 E0.28185
G1 X10.381 Y68.284 E0.01689
G1 X3.521 Y61.425 E0.30574
G1 X2.985 Y61.425 E0.01689
G1 X10.381 Y68.820 E0.32964
G1 X10.381 Y69.356 E0.01689
G1 X2.449 Y61.425 E0.35353
G1 X1.913 Y61.425 E0.01689
G1 X10.381 Y69.892 E0.37742
G1 X10.381 Y70.428 E0.01689
G1 X1.377 Y61.425 E0.40132
G1 X0.958 Y61.425 E0.01321
G1 X0.958 Y61.541 E0.00368
G1 X10.381 Y70.964 E0.42000
G1 X10.381 Y71.500 E0.01689
G1 X0.958 Y62.077 E0.42000
G1 X0.958 Y62.614 E0.01689
G1 X10.381 Y72.037 E0.42000
G1 X10.381 Y72.573 E0.01689
G1 X0.958 Y63.150 E0.42000
G1 X0.958 Y63.686 E0.01689
G1 X10.381 Y73.109 E0.42000
G1 X10.381 Y73.645 E0.01689
G1 X0.958 Y64.222 E0.42000
G1 X0.958 Y64.758 E0.01689
G1 X10.381 Y74.181 E0.42000
G1 X10.381 Y74.717 E0.01689
G1 X0.958 Y65.294 E0.42000
G1 X0.958 Y65.830 E0.01689
G1 X10.381 Y75.253 E0.42000
G1 X10.381 Y75.789 E0.01689
G1 X0.958 Y66.366 E0.42000
G1 X0.958 Y66.902 E0.01689
G1 X10.381 Y76.325 E0.42000
G1 X10.381 Y76.861 E0.01689
G1 X0.958 Y67.438 E0.42000
G1 X0.958 Y67.974 E0.01689
G1 X10.381 Y77.397 E0.42000
G1 X10.381 Y77.933 E0.01689
G1 X0.958 Y68.510 E0.42000
G1 X0.958 Y69.046 E0.01689
G1 X10.381 Y78.469 E0.42000
G1 X10.381 Y79.005 E0.01689
G1 X0.958 Y69.582 E0.42000
G1 X0.958 Y70.118 E0.01689
G1 X10.381 Y79.541 E0.42000
G1 X10.381 Y80.077 E0.01689
G1 X0.958 Y70.654 E0.42000
G1 X0.958 Y71.190 E0.01689
G1 X10.381 Y80.613 E0.42000
G1 X10.381 Y81.149 E0.01689
G1 X0.958 Y71.726 E0.42000
G1 X0.958 Y72.262 E0.01689
G1 X10.381 Y81.685 E0.42000
G1 X10.381 Y82.221 E0.01689
G1 X0.958 Y72.798 E0.42000
G1 X0.958 Y73.334 E0.01689
G1 X10.381 Y82.757 E0.42000
G1 X10.381 Y83.293 E0.01689
G1 X0.958 Y73.870 E0.42000
G1 X0.958 Y74.406 E0.01689
G1 X10.381 Y83.829 E0.42000
G1 X10.381 Y84.365 E0.01689
G1 X0.958 Y74.942 E0.42000
G1 X0.958 Y75.479 E0.01689
G1 X10.381 Y84.902 E0.42000
G1 X10.381 Y85.438 E0.01689
G1 X0.958 Y76.015 E0.42000
G1 X0.958 Y76.551 E0.01689
G1 X10.381 Y85.974 E0.42000
G1 X10.381 Y86.510 E0.01689
G1 X0.958 Y77.087 E0.42000
G1 X0.958 Y77.623 E0.01689
G1 X10.381 Y87.046 E0.42000
G1 X10.381 Y87.582 E0.01689
G1 X0.958 Y78.159 E0.42000
G1 X0.958 Y78.695 E0.01689
G1 X10.381 Y88.118 E0.42000
G1 X10.381 Y88.654 E0.01689
G1 X0.958 Y79.231 E0.42000
G1 X0.958 Y79.767 E0.01689
G1 X10.381 Y89.190 E0.42000
G1 X10.381 Y89.726 E0.01689
G1 X0.958 Y80.303 E0.42000
G1 X0.958 Y80.839 E0.01689
G1 X10.381 Y90.262 E0.42000
G1 X10.381 Y90.798 E0.01689
G1 X0.958 Y81.375 E0.42000
G1 X0.958 Y81.911 E0.01689
G1 X10.381 Y91.334 E0.42000
G1 X10.381 Y91.870 E0.01689
G1 X0.958 Y82.447 E0.42000
G1 X0.958 Y82.983 E0.01689
G1 X10.381 Y92.406 E0.42000
G1 X10.381 Y92.942 E0.01689
G1 X0.958 Y83.519 E0.42000
G1 X0.958 Y84.055 E0.01689
G1 X10.381 Y93.478 E0.42000
G1 X10.381 Y94.014 E0.01689
G1 X0.958 Y84.591 E0.42000
M73 P3 R32
G1 X0.958 Y85.127 E0.01689
G1 X10.381 Y94.550 E0.42000
G1 X10.381 Y95.086 E0.01689
G1 X0.958 Y85.663 E0.42000
G1 X0.958 Y86.199 E0.01689
G1 X10.381 Y95.622 E0.42000
G1 X10.381 Y96.158 E0.01689
G1 X0.958 Y86.735 E0.42000
G1 X0.958 Y87.271 E0.01689
G1 X10.381 Y96.694 E0.42000
G1 X10.381 Y97.230 E0.01689
G1 X0.958 Y87.808 E0.42000
G1 X0.958 Y88.344 E0.01689
G1 X10.381 Y97.767 E0.42000
G1 X10.381 Y98.303 E0.01689
G1 X0.958 Y88.880 E0.42000
G1 X0.958 Y89.416 E0.01689
G1 X10.381 Y98.839 E0.42000
G1 X10.381 Y99.375 E0.01689
G1 X0.958 Y89.952 E0.42000
G1 X0.958 Y90.488 E0.01689
G1 X10.381 Y99.911 E0.42000
G1 X10.381 Y100.447 E0.01689
G1 X0.958 Y91.024 E0.42000
G1 X0.958 Y91.560 E0.01689
G1 X10.381 Y100.983 E0.42000
G1 X10.381 Y101.519 E0.01689
G1 X0.958 Y92.096 E0.42000
G1 X0.958 Y92.632 E0.01689
G1 X10.381 Y102.055 E0.42000
G1 X10.381 Y102.591 E0.01689
G1 X0.958 Y93.168 E0.42000
G1 X0.958 Y93.704 E0.01689
G1 X10.381 Y103.127 E0.42000
G1 X10.381 Y103.663 E0.01689
G1 X0.958 Y94.240 E0.42000
G1 X0.958 Y94.776 E0.01689
G1 X10.381 Y104.199 E0.42000
G1 X10.381 Y104.735 E0.01689
G1 X0.958 Y95.312 E0.42000
G1 X0.958 Y95.848 E0.01689
G1 X10.381 Y105.271 E0.42000
G1 X10.381 Y105.807 E0.01689
G1 X0.958 Y96.384 E0.42000
G1 X0.958 Y96.920 E0.01689
G1 X10.381 Y106.343 E0.42000
G1 X10.381 Y106.879 E0.01689
G1 X0.958 Y97.456 E0.42000
G1 X0.958 Y97.992 E0.01689
G1 X10.381 Y107.415 E0.42000
G1 X10.381 Y107.951 E0.01689
G1 X0.958 Y98.528 E0.42000
G1 X0.958 Y99.064 E0.01689
G1 X10.381 Y108.487 E0.42000
G1 X10.381 Y109.023 E0.01689
G1 X0.958 Y99.600 E0.42000
G1 X0.958 Y100.136 E0.01689
G1 X10.381 Y109.559 E0.42000
G1 X10.381 Y110.095 E0.01689
G1 X0.958 Y100.673 E0.42000
G1 X0.958 Y101.209 E0.01689
G1 X10.381 Y110.632 E0.42000
G1 X10.381 Y111.168 E0.01689
G1 X0.958 Y101.745 E0.42000
G1 X0.958 Y102.281 E0.01689
G1 X10.381 Y111.704 E0.42000
G1 X10.381 Y112.240 E0.01689
G1 X0.958 Y102.817 E0.42000
G1 X0.958 Y103.353 E0.01689
G1 X10.381 Y112.776 E0.42000
G1 X10.381 Y113.312 E0.01689
G1 X0.958 Y103.889 E0.42000
G1 X0.958 Y104.425 E0.01689
G1 X10.381 Y113.848 E0.42000
G1 X10.381 Y114.384 E0.01689
G1 X0.958 Y104.961 E0.42000
G1 X0.958 Y105.497 E0.01689
G1 X10.381 Y114.920 E0.42000
G1 X10.381 Y115.456 E0.01689
G1 X0.958 Y106.033 E0.42000
G1 X0.958 Y106.569 E0.01689
G1 X10.381 Y115.992 E0.42000
G1 X10.381 Y116.528 E0.01689
G1 X0.958 Y107.105 E0.42000
G1 X0.958 Y107.641 E0.01689
G1 X10.381 Y117.064 E0.42000
G1 X10.381 Y117.600 E0.01689
G1 X0.958 Y108.177 E0.42000
G1 X0.958 Y108.713 E0.01689
G1 X10.381 Y118.136 E0.42000
G1 X10.381 Y118.672 E0.01689
G1 X0.958 Y109.249 E0.42000
G1 X0.958 Y109.785 E0.01689
G1 X10.381 Y119.208 E0.42000
G1 X10.381 Y119.744 E0.01689
G1 X0.958 Y110.321 E0.42000
G1 X0.958 Y110.857 E0.01689
G1 X10.381 Y120.280 E0.42000
G1 X10.381 Y120.816 E0.01689
G1 X0.958 Y111.393 E0.42000
G1 X0.958 Y111.929 E0.01689
G1 X10.381 Y121.352 E0.42000
G1 X10.381 Y121.888 E0.01689
G1 X0.958 Y112.465 E0.42000
G1 X0.958 Y113.001 E0.01689
G1 X10.381 Y122.424 E0.42000
G1 X10.381 Y122.961 E0.01689
G1 X0.958 Y113.538 E0.42000
G1 X0.958 Y114.074 E0.01689
G1 X10.381 Y123.497 E0.42000
G1 X10.381 Y124.033 E0.01689
G1 X0.958 Y114.610 E0.42000
G1 X0.958 Y115.146 E0.01689
G1 X10.381 Y124.569 E0.42000
G1 X10.381 Y125.105 E0.01689
G1 X0.958 Y115.682 E0.42000
G1 X0.958 Y116.218 E0.01689
G1 X10.381 Y125.641 E0.42000
G1 X10.381 Y126.177 E0.01689
G1 X0.958 Y116.754 E0.42000
G1 X0.958 Y117.290 E0.01689
G1 X10.381 Y126.713 E0.42000
G1 X10.381 Y127.249 E0.01689
G1 X0.958 Y117.826 E0.42000
G1 X0.958 Y118.362 E0.01689
G1 X10.381 Y127.785 E0.42000
G1 X10.381 Y128.321 E0.01689
G1 X0.958 Y118.898 E0.42000
G1 X0.958 Y119.434 E0.01689
G1 X10.381 Y128.857 E0.42000
G1 X10.381 Y129.393 E0.01689
G1 X0.958 Y119.970 E0.42000
G1 X0.958 Y120.506 E0.01689
G1 X10.381 Y129.929 E0.42000
G1 X10.381 Y130.465 E0.01689
G1 X0.958 Y121.042 E0.42000
G1 X0.958 Y121.578 E0.01689
G1 X10.381 Y131.001 E0.42000
G1 X10.381 Y131.537 E0.01689
G1 X0.958 Y122.114 E0.42000
G1 X0.958 Y122.650 E0.01689
G1 X10.381 Y132.073 E0.42000
G1 X10.381 Y132.609 E0.01689
G1 X0.958 Y123.186 E0.42000
G1 X0.958 Y123.722 E0.01689
G1 X10.381 Y133.145 E0.42000
G1 X10.381 Y133.681 E0.01689
G1 X0.958 Y124.258 E0.42000
G1 X0.958 Y124.794 E0.01689
G1 X10.381 Y134.217 E0.42000
G1 X10.381 Y134.753 E0.01689
G1 X0.958 Y125.330 E0.42000
G1 X0.958 Y125.866 E0.01689
G1 X10.381 Y135.289 E0.42000
G1 X10.381 Y135.826 E0.01689
G1 X0.958 Y126.403 E0.42000
G1 X0.958 Y126.939 E0.01689
G1 X10.381 Y136.362 E0.42000
G1 X10.381 Y136.898 E0.01689
G1 X0.958 Y127.475 E0.42000
G1 X0.958 Y128.011 E0.01689
G1 X10.381 Y137.434 E0.42000
G1 X10.381 Y137.970 E0.01689
G1 X0.958 Y128.547 E0.42000
G1 X0.958 Y129.083 E0.01689
G1 X10.381 Y138.506 E0.42000
G1 X10.381 Y139.042 E0.01689
G1 X0.958 Y129.619 E0.42000
G1 X0.958 Y130.155 E0.01689
G1 X10.381 Y139.578 E0.42000
G1 X10.381 Y140.114 E0.01689
G1 X0.958 Y130.691 E0.42000
M73 P6 R31
G1 X0.958 Y131.227 E0.01689
G1 X10.381 Y140.650 E0.42000
G1 X10.381 Y141.186 E0.01689
G1 X0.958 Y131.763 E0.42000
G1 X0.958 Y132.299 E0.01689
G1 X10.381 Y141.722 E0.42000
G1 X10.381 Y142.258 E0.01689
G1 X0.958 Y132.835 E0.42000
G1 X0.958 Y133.371 E0.01689
G1 X10.381 Y142.794 E0.42000
G1 X10.381 Y143.330 E0.01689
G1 X0.958 Y133.907 E0.42000
G1 X0.958 Y134.443 E0.01689
G1 X10.381 Y143.866 E0.42000
G1 X10.381 Y144.402 E0.01689
G1 X0.958 Y134.979 E0.42000
G1 X0.958 Y135.515 E0.01689
G1 X10.381 Y144.938 E0.42000
G1 X10.381 Y145.474 E0.01689
G1 X0.958 Y136.051 E0.42000
G1 X0.958 Y136.587 E0.01689
G1 X10.381 Y146.010 E0.42000
G1 X10.381 Y146.546 E0.01689
G1 X0.958 Y137.123 E0.42000
G1 X0.958 Y137.659 E0.01689
G1 X10.381 Y147.082 E0.42000
G1 X10.381 Y147.618 E0.01689
G1 X0.958 Y138.195 E0.42000
G1 X0.958 Y138.732 E0.01689
G1 X9.961 Y147.735 E0.40131
G1 X9.425 Y147.735 E0.01689
G1 X0.958 Y139.268 E0.37742
G1 X0.958 Y139.804 E0.01689
G1 X8.889 Y147.735 E0.35353
G1 X8.353 Y147.735 E0.01689
G1 X0.958 Y140.340 E0.32963
G1 X0.958 Y140.876 E0.01689
G1 X7.817 Y147.735 E0.30574
G1 X7.281 Y147.735 E0.01689
G1 X0.958 Y141.412 E0.28185
G1 X0.958 Y141.948 E0.01689
G1 X6.745 Y147.735 E0.25796
G1 X6.209 Y147.735 E0.01689
G1 X0.958 Y142.484 E0.23406
G1 X0.958 Y143.020 E0.01689
G1 X5.673 Y147.735 E0.21017
G1 X5.137 Y147.735 E0.01689
G1 X0.958 Y143.556 E0.18628
G1 X0.958 Y144.092 E0.01689
G1 X4.601 Y147.735 E0.16239
G1 X4.065 Y147.735 E0.01689
G1 X0.958 Y144.628 E0.13849
G1 X0.958 Y145.164 E0.01689
G1 X3.529 Y147.735 E0.11460
G1 X2.993 Y147.735 E0.01689
G1 X0.958 Y145.700 E0.09071
G1 X0.958 Y146.236 E0.01689
G1 X2.457 Y147.735 E0.06682
G1 X1.921 Y147.735 E0.01689
G1 X0.958 Y146.772 E0.04292
G1 X0.958 Y147.308 E0.01689
G1 X1.554 Y147.905 E0.02659
G1 F8640
G1 X0.958 Y147.308 E-0.19483
G1 X0.958 Y146.772 E-0.12377
G1 X1.921 Y147.735 E-0.31446
G1 X2.457 Y147.735 E-0.12377
G1 X2.447 Y147.725 E-0.00316
G1 E-0.04000 F2100.00000
G1 Z0.800 F10800.000
G1 X238.736 Y147.905
G1 Z0.200
G1 E0.80000 F2100.00000
G1 F1200
G1 X238.736 Y61.142 E2.72039
G1 X248.921 Y61.142 E0.31933
G1 X248.921 Y148.018 E2.72394
G1 X238.736 Y148.018 E0.31933
G1 X238.736 Y147.965 E0.00166
G1 X238.359 Y148.395 F10800.000
G1 F1200
G1 X238.359 Y60.765 E2.74758
G1 X249.298 Y60.765 E0.34297
G1 X249.298 Y148.395 E2.74758
G1 X238.419 Y148.395 E0.34109
G1 X238.376 Y147.995 F10800.000
G1 F8640
G1 X238.417 Y145.104 E-0.76000
G1 E-0.04000 F2100.00000
G1 Z0.800 F10800.000
G1 X238.849 Y147.141
G1 Z0.200
G1 E0.80000 F2100.00000
G1 F1200
G1 X239.443 Y147.735 E0.02638
G1 X239.978 Y147.735 E0.01678
G1 X239.019 Y146.777 E0.04257
G1 X239.019 Y146.243 E0.01678
G1 X240.512 Y147.735 E0.06629
G1 X241.046 Y147.735 E0.01678
G1 X239.019 Y145.708 E0.09002
G1 X239.019 Y145.174 E0.01678
G1 X241.580 Y147.735 E0.11374
G1 X242.114 Y147.735 E0.01678
G1 X239.019 Y144.640 E0.13747
G1 X239.019 Y144.106 E0.01678
G1 X242.648 Y147.735 E0.16119
G1 X243.182 Y147.735 E0.01678
G1 X239.019 Y143.572 E0.18492
G1 X239.019 Y143.038 E0.01678
G1 X243.717 Y147.735 E0.20864
G1 X244.251 Y147.735 E0.01678
G1 X239.019 Y142.503 E0.23237
G1 X239.019 Y141.969 E0.01678
G1 X244.785 Y147.735 E0.25609
G1 X245.319 Y147.735 E0.01678
G1 X239.019 Y141.435 E0.27982
G1 X239.019 Y140.901 E0.01678
G1 X245.853 Y147.735 E0.30355
G1 X246.387 Y147.735 E0.01678
G1 X239.019 Y140.367 E0.32727
G1 X239.019 Y139.833 E0.01678
G1 X246.922 Y147.735 E0.35100
G1 X247.456 Y147.735 E0.01678
G1 X239.019 Y139.298 E0.37472
G1 X239.019 Y138.764 E0.01678
G1 X247.990 Y147.735 E0.39845
G1 X248.524 Y147.735 E0.01678
G1 X239.019 Y138.230 E0.42217
G1 X239.019 Y137.696 E0.01678
G1 X248.638 Y147.315 E0.42723
G1 X248.638 Y146.781 E0.01678
G1 X239.019 Y137.162 E0.42723
G1 X239.019 Y136.628 E0.01678
G1 X248.638 Y146.247 E0.42723
G1 X248.638 Y145.712 E0.01678
G1 X239.019 Y136.094 E0.42723
G1 X239.019 Y135.559 E0.01678
G1 X248.638 Y145.178 E0.42723
G1 X248.638 Y144.644 E0.01678
G1 X239.019 Y135.025 E0.42723
G1 X239.019 Y134.491 E0.01678
G1 X248.638 Y144.110 E0.42723
G1 X248.638 Y143.576 E0.01678
G1 X239.019 Y133.957 E0.42723
G1 X239.019 Y133.423 E0.01678
G1 X248.638 Y143.042 E0.42723
G1 X248.638 Y142.507 E0.01678
G1 X239.019 Y132.889 E0.42723
G1 X239.019 Y132.354 E0.01678
G1 X248.638 Y141.973 E0.42723
G1 X248.638 Y141.439 E0.01678
G1 X239.019 Y131.820 E0.42723
G1 X239.019 Y131.286 E0.01678
G1 X248.638 Y140.905 E0.42723
G1 X248.638 Y140.371 E0.01678
G1 X239.019 Y130.752 E0.42723
G1 X239.019 Y130.218 E0.01678
G1 X248.638 Y139.837 E0.42723
G1 X248.638 Y139.302 E0.01678
G1 X239.019 Y129.684 E0.42723
G1 X239.019 Y129.149 E0.01678
G1 X248.638 Y138.768 E0.42723
G1 X248.638 Y138.234 E0.01678
G1 X239.019 Y128.615 E0.42723
G1 X239.019 Y128.081 E0.01678
G1 X248.638 Y137.700 E0.42723
G1 X248.638 Y137.166 E0.01678
G1 X239.019 Y127.547 E0.42723
G1 X239.019 Y127.013 E0.01678
G1 X248.638 Y136.632 E0.42723
G1 X248.638 Y136.097 E0.01678
G1 X239.019 Y126.479 E0.42723
M73 P9 R30
G1 X239.019 Y125.944 E0.01678
G1 X248.638 Y135.563 E0.42723
G1 X248.638 Y135.029 E0.01678
G1 X239.019 Y125.410 E0.42723
G1 X239.019 Y124.876 E0.01678
G1 X248.638 Y134.495 E0.42723
G1 X248.638 Y133.961 E0.01678
G1 X239.019 Y124.342 E0.42723
G1 X239.019 Y123.808 E0.01678
G1 X248.638 Y133.427 E0.42723
G1 X248.638 Y132.893 E0.01678
G1 X239.019 Y123.274 E0.42723
G1 X239.019 Y122.739 E0.01678
G1 X248.638 Y132.358 E0.42723
G1 X248.638 Y131.824 E0.01678
G1 X239.019 Y122.205 E0.42723
G1 X239.019 Y121.671 E0.01678
G1 X248.638 Y131.290 E0.42723
G1 X248.638 Y130.756 E0.01678
G1 X239.019 Y121.137 E0.42723
G1 X239.019 Y120.603 E0.01678
G1 X248.638 Y130.222 E0.42723
G1 X248.638 Y129.688 E0.01678
G1 X239.019 Y120.069 E0.42723
G1 X239.019 Y119.534 E0.01678
G1 X248.638 Y129.153 E0.42723
G1 X248.638 Y128.619 E0.01678
G1 X239.019 Y119.000 E0.42723
G1 X239.019 Y118.466 E0.01678
G1 X248.638 Y128.085 E0.42723
G1 X248.638 Y127.551 E0.01678
G1 X239.019 Y117.932 E0.42723
G1 X239.019 Y117.398 E0.01678
G1 X248.638 Y127.017 E0.42723
